!!!!SEGMENT: pl-wtm--r-1491_stefani-jozef--o-bozym-narodzeniu.krn
!!!cenid: 18xx:2228
!!!COM: Stefani, Józef
!!!COM-rismID: pe30024097
!!!CDT: 1800/04/16-1876/03/19
!!!CNT: Polish
!!!OTL: O Bożym Narodzeniu
!!!PDT:
!!!AGN:
!!!SMS-siglum: PL-Wtm
!!!SMS-shelfmark: R 1491
!!!SMS-shelfwork: W
!!!SMS-variant:
!!!SMS-altvar:
!!!NIFC-rismSourceID: 1001119957
!!!NIFC-islandoraID: pl-wtm:26058
!!!URL-pdf-islandora: https://repozytorium.nifc.pl/islandora/object/pl-wtm%3A26058/datastream/PDF/view
!!!URL-scan: https://polish.musicsources.pl/pl/lokalizacje/galeria/rekopisy/6303 @EN{Scan on Polish Music Sources Website} @PL{Skany w portalu Dziedzictwo Muzyki Polskiej w otwartym dostępie}
!!!ONB-nifc:
!!!AIN: 1 empty 1 forte
!!!key:
**kern	**kern	**dynam	**kern	**text	**dynam
*part2	*part2	*part2	*part1	*part1	*part1
*staff3	*staff2	*	*staff1	*staff1	*
*Iforte	*Iforte	*	*Iempty	*	*
*I"Fortepian	*I"Fortepian	*	*I"Śpiew	*	*
*clefF4	*clefG2	*	*clefG2	*	*
*k[b-]	*k[b-]	*	*k[b-]	*	*
*F:	*F:	*	*F:	*	*
*M4/4	*M4/4	*	*M4/4	*	*
*met(c)	*met(c)	*	*met(c)	*	*
*>[A,B,B1,B,B2,C]	*>[A,B,B1,B,B2,C]	*	*>[A,B,B1,B,B2,C]	*	*
=1	=1	=1	=1	=1	=1
*>A	*>A	*	*>A	*	*
*2\right	*2\right	*	*2\right	*	*
!	!	!	!LO:TX:a:i:t=Andantino.	!	!
!	!	!LO:DY:b:rj	!LO:TX:t=P:problem=all\right&colon; global	!	!
2F 2FF/	(>2ff 2f\	f	1ryy	.	.
4A 4AA\	4a/	.	.	.	.
4d 4D\	4dd\)	.	.	.	.
=2	=2	=2	=2-	=2	=2
1c 1C	1cc	.	1ryy	.	.
=3	=3	=3	=3-	=3	=3
8qD/	.	.	.	.	.
!	!	!LO:DY:b:rj	!	!	!
!	!	!LO:HP:a	!	!	!
4.d\	4.a 4.f/	p <	1ryy	.	.
8d\	8a 8f/	.	.	.	.
4d\	4a 4f/	.	.	.	.
4d-X\	4bn 4f/	[	.	.	.
=4	=4	=4	=4-	=4	=4
1c	1cc 1e	.	1ryy	.	.
=5	=5	=5	=5-	=5	=5
!	!	!LO:DY:b:rj	!	!	!
2B- 2BB-\	2dd 2f/	f	1ryy	.	.
4.B- 4.BB-\	4.e 4.c/	.	.	.	.
8B- 8BB-\	8e 8c/	.	.	.	.
!!LO:LB:g=original
=6	=6	=6	=6	=6	=6
*	*	*^	*	*	*
!	!	!	!LO:DY:b:rj	!	!	!
16AA\LL	(>16f/LL	.	p	1ryy	.	.
16A\	16c/	.	.	.	.	.
16AA\	16f/	.	.	.	.	.
!	!	!LO:HP:b	!	!	!	!
16A\JJ	16c/JJ	<	.	.	.	.
16AA\LL	16f/LL	.	.	.	.	.
16A\	16c/	.	.	.	.	.
16AA\	16f/	.	.	.	.	.
!	!	!	!LO:HP:a:t=cresc&colon;	!	!	!
16A\JJ	16c/JJ	.	<	.	.	.
16AA\LL	16f/LL	.	.	.	.	.
16A\	16c/	.	.	.	.	.
16AA\	16f/	.	.	.	.	.
16A\JJ	16c/JJ	.	.	.	.	.
16AA-X\LL	16f#XLL 16d#X/	.	.	.	.	.
16A-X\	16c/	[	.	.	.	.
16AA-\	16f# 16d#/	.	.	.	.	.
16A-\JJ	16c/JJ)	.	.	.	.	.
*	*	*v	*v	*	*	*
=7	=7	=7	=7	=7	=7
*tremolo	*tremolo	*	*	*	*
!LO:TX:t=P:problem=mixed beam	!LO:TX:t=P:problem=w źródle główki nut niezaczernione (dot. tremola)	!LO:DY:b:t=for	!	!	!
16GG/LL	(>16gL 16e/	f	1ryy	.	.
16G\	16c/	.	.	.	.
16GG/	16g 16e/	.	.	.	.
16G\	16c/	.	.	.	.
16GG/	16g 16e/	.	.	.	.
16G\	16c/	.	.	.	.
16GG/	16g 16e/	.	.	.	.
16G\JJ	16c/J	.	.	.	.
*	*Xtremolo	*	*	*	*
!LO:TX:t=P:problem=mixed beam	!	!	!	!	!
16GG/LL	16gLL 16d/	.	.	.	.
16G\	16c/	.	.	.	.
16GG/	16g 16d/	.	.	.	.
16G\	16c/JJ	.	.	.	.
16GG/	16gLL 16d/	.	.	.	.
16G\	16Bn/	.	.	.	.
16GG/	16g 16d/	.	.	.	.
16G\JJ	16B/JJ	.	.	.	.
*Xtremolo	*	*	*	*	*
=8	=8	=8	=8	=8	=8
4C/	4c/)	.	1ryy	.	.
!	!	!LO:DY:b	!	!	!
2.C 2.CC/	(>8b-XL 8g/	p	.	.	.
.	8c/J	.	.	.	.
.	8aL 8f/	.	.	.	.
.	8c/	.	.	.	.
.	8g 8e/	.	.	.	.
.	8c/J	.	.	.	.
!!LO:LB:g=original
=9	=9	=9	=9	=9	=9
*	*^	*	*	*	*
!LO:N:vis=2	!LO:TX:t=P:problem=brak zakończenia łuku	!	!	!	!	!
8FF\L	2a 2f 2c/)	2ryy	.	2a/	Wół	.
8C\	.	.	.	.	.	.
8F\	.	.	.	.	.	.
8C\J	.	.	.	.	.	.
!LO:N:vis=2	!	!	!	!	!	!
8EE\L	4cc/	2c/	.	4cc\	ry-	.
8C\	.	.	.	.	.	.
8E\	4g/	.	.	4g/	-czy	.
8C\J	.	.	.	.	.	.
=10	=10	=10	=10	=10	=10	=10
*^	*	*	*	*	*	*
!	!LO:N:vis=2	!	!	!	!	!	!
2FF/	8FF\L	2a 2f 2c/	2ryy	.	4a/	O-	.
.	8C\	.	.	.	.	.	.
.	8F\	.	.	.	4a/	-sioł	.
.	8C\J	.	.	.	.	.	.
!	!LO:N:vis=2	!	!	!	!	!	!
2EE/	8EE\L	4cc/	2c/	.	4cc\	Krzy-	.
.	8C\	.	.	.	.	.	.
.	8E\	4g/	.	.	4g/	-czy	.
.	8C\J	.	.	.	.	.	.
=11	=11	=11	=11	=11	=11	=11	=11
!	!LO:N:vis=2	!	!	!	!	!	!
2DD/	8DD\L	2f 2d 2A</	2ryy	.	4f/	Wro-	.
.	8AA\	.	.	.	.	.	.
.	8D\	.	.	.	4f/	-na	.
.	8AA\J	.	.	.	.	.	.
!	!LO:N:vis=2	!	!	!	!	!	!
2CC#X/	8CC#\L	4a/	2A</	.	8.a/L	skrze-	.
.	8GG\	.	.	.	.	.	.
.	.	.	.	.	16e/Jk	.	.
.	8C#X\	4e/	.	.	4e/	-czy	.
.	8AA\J	.	.	.	.	.	.
*	*	*v	*v	*	*	*	*
=12	=12	=12	=12	=12	=12	=12
*	*^	*	*	*	*	*
!	!LO:N:vis=2	!	!	!	!	!	!
2DD/	8DD\L	2ryy	2f 2d 2A</	.	4f/	Ba-	.
.	8AA\	.	.	.	.	.	.
.	8D\	.	.	.	4f/	-ran	.
.	8AA\J	.	.	.	.	.	.
!	!LO:N:vis=2	!	!	!	!	!	!
2CC#X/	8CC#\L	8ryy	4a 4A</	.	(<8.a/L	be-	.
.	8GG\	4GG/	.	.	.	.	.
.	.	.	.	.	16e/Jk)	.	.
.	8C#X\	.	8.eL 8.A</	.	8.e/	-czy	.
.	8AA\J	8ryy	.	.	.	.	.
.	.	.	16eJk 16A</	.	16e/	Pta-	.
*v	*v	*v	*	*	*	*	*
!!LO:LB:g=original
=13	=13	=13	=13	=13	=13
2D 2DD\	2d 2A< 2F</	.	2d/	-szę-	.
2C 2CC\	2e 2B-< 2G</	.	(<4et/	-ta	.
.	.	.	8.d/)	.	.
.	.	.	16e/	śpie-	.
=14	=14	=14	=14	=14	=14
*	*^	*	*	*	*
2.F 2.FF\	2.f 2.A<;>/	2.ryy	.	(>[>4f/	-wa-	.
.	.	.	.	16f\LL]	.	.
.	.	.	.	16a\	.	.
.	.	.	.	16cc\	.	.
.	.	.	.	16ff\JJ)	.	.
.	.	.	.	4aa 4f;>\	-ią,	.
4D 4DD/	8.f/L	4d\	.	8.f/	Pa-	.
.	16g/Jk	.	.	16g/	-nu	.
*	*v	*v	*	*	*	*
=15	=15	=15	=15	=15	=15
4C 4CC/	4a 4f 4c/	.	4a/	cześć	.
4r	4r	.	8.g/	tem	.
.	.	.	16f/	od-	.
4r	4r	.	2cc\	-da-	.
4C 4CC\	4e 4B-< 4G</	.	.	.	.
==16	==16	==16	==16	==16	==16
*M2/4	*M2/4	*	*M2/4	*	*
*^	*	*	*	*	*
!	!	!	!	!LO:TX:a:i:t=Allegro	!	!
8F 8FF\	4ryy	8f 8A</	.	8f/	-ią.	.
8r	.	8r	.	8r	.	.
.	.	(>8qff#X 8qf#X/	.	.	.	.
4BBn/	8BBn\L	8ggL 8g\)	.	8g/	Sro-	.
.	8GJ 8D\	8ggJ 8g'>\	.	8g/	-ka	.
!!LO:PB:g=original
=17	=17	=17	=17	=17	=17	=17
4C/	8C\L	(>8aaL 8a\	.	8a/	ple-	.
.	8GJ 8E\	8ggJ 8g\)	.	8g/	-cie,	.
4BBn/	8BBn\L	8ggL 8g'>\	.	8g/	Cza-	.
.	8GJ 8D\	8ggJ 8g'>\	.	8g/	-pla,	.
=18	=18	=18	=18	=18	=18	=18
4C/	8C\L	8aaL 8a\	.	8a/	pla-	.
.	8GJ 8E\	8ggJ 8g\	.	8g/	-pla,	.
4C#X/	8C#\L	8aaL 8a\	.	8a/	Pa-	.
.	8AJ 8E\	16aaL 16a\	.	16a/	-sterz	.
.	.	16aaJJ 16a\	.	16a/	na	.
=19	=19	=19	=19	=19	=19	=19
4D/	8D\L	(>8bb-L 8b-\	.	8b-/	fle-	.
.	8AJ 8F\	8aaJ 8a\)	.	8a/	-cie	.
4E/	8E\L	[>4ccc [>4cc\	.	[>4cc\	Przy-	.
.	8cJ 8G\	.	.	.	.	.
*v	*v	*	*	*	*	*
==20	==20	==20	==20	==20	==20
*M3/8	*M3/8	*	*M3/8	*	*
*^	*	*	*	*	*
!	!	!	!	!LO:TX:a:i:t=Allegretto.	!	!
!	!	!	!LO:DY:b:rj	!	!	!
4.C/	8C\L	16.ccc]LL 16.cc\]	f	16.cc\]	.	.
.	.	32dddJJk 32dd\	.	32dd\	-gry-	.
.	8c 8B- 8E\	8cccL 8cc\	.	8cc\	-wa	.
.	8cJ 8G 8E\	8bb-J 8b-\	.	8b-\	we-	.
*v	*v	*	*	*	*	*
!!LO:LB:g=original
=21	=21	=21	=21	=21	=21
8FF/	8aa 8a\	.	8a/	-so-	.
4A 4F 4C\	4fff 4ff^<\	.	4ff\	-ło	.
=22	=22	=22	=22	=22	=22
*^	*	*	*	*	*
!	!	!	!LO:DY:b	!	!	!
4.C/	8C\L	16.cccLL 16.cc\	p	16.cc\	la-	.
.	.	32dddJJk 32dd\	.	32dd\	.	.
.	8c 8B- 8E\	8cccL 8cc\	.	8cc\	.	.
.	8cJ 8G 8E\	8bb-J 8b-\	.	8b-\	.	.
*v	*v	*	*	*	*	*
=23	=23	=23	=23	=23	=23
8FF/	8aa 8a\	.	8a\	-la	.
4A 4F 4C\	4fff 4ff\	.	4ff\	la	.
=24	=24	=24	=24	=24	=24
*^	*	*	*	*	*
!	!	!	!LO:DY:b:rj	!	!	!
4.BB-/	8BB-\L	(>16eeeLL 16ee\	f	(>16ee\LL	A	.
.	.	16dddJJ 16dd\)	.	16dd\JJ)	.	.
.	8G 8D\	8cccL 8cc\	.	8cc\	wszy-	.
.	8GJ 8D\	8bb-J 8b-\	.	8b-\	-scy	.
=25	=25	=25	=25	=25	=25	=25
4.C/	8C\L	(<16aaLL 16a\	.	(>16a\LL	wko-	.
.	.	16dddJJ 16dd\)	.	16dd\JJ)	.	.
.	8A 8F\	8cccL 8cc\	.	8cc\	-ło	.
.	8AJ 8F\	8cccJ 8cc\	.	8cc\	Z po-	.
!!LO:LB:g=original
=26	=26	=26	=26	=26	=26	=26
4.C/	8C\L	16.cccLL 16.cc\	.	16.cc\	-ko-	.
.	.	32ggJJk 32g\	.	32g/	-rą	.
.	8B- 8E\	8aaL 8a\	.	8a/	się	.
.	8B-J 8E\	8bb-J 8b-\	.	8b-/	kła-	.
*v	*v	*	*	*	*	*
=27	=27	=27	=27	=27	=27
16FF/	16.aaLL 16.a\	.	(>16.a\LL	-nia-	.
16r	.	.	.	.	.
.	32dddJJk 32dd\	.	32dd\JJk)	.	.
8A 8F 8C\	8ccc 8cc\	.	8cc\	-ią	.
8A 8F 8C\	8a/	.	8a/	I	.
==28	==28	==28	==28	==28	==28
*M2/4	*M2/4	*	*M2/4	*	*
!	!	!LO:DY:b	!LO:TX:a:i:t=Maestoso	!	!
2G 2D 2BB-\	4g/	p	4g/	Pa-	.
.	4d/	.	4d/	-nu	.
=29	=29	=29	=29	=29	=29
2G 2C\	2e 2B-/	.	(<4et>/	cześć	.
.	.	.	8.d/)	.	.
.	.	.	16e/	od-	.
=30	=30	=30	=30	=30	=30
4G 4C\	4e 4B-/	.	(>4dd\	-da-	.
4G 4C\	4e 4B-/	.	4cc\)	.	.
=31	=31	=31	=31	=31	=31
!	!	!LO:HP:b	!	!	!
4F 4FF/	4f 4A/	<	4f/	-ią.	.
(>8E\L	(<8e/L	.	4r	.	.
8D\J	8f/J	[[	.	.	.
!!LO:LB:g=original
=32	=32	=32	=32	=32	=32
!LO:TX:t=P:problem=brak zakończenia łuku	!LO:TX:t=P:problem=brak zakończenia łuku	!LO:DY:b	!	!	!
4C\)	4g 4e/)	mf	8g/	Przy-	.
.	.	.	8g/	-sli	.
8.F\L	8.aL 8.f/	.	8.a/	trzej	.
16A\Jk	16ccJk 16f/	.	16cc\	Kró-	.
=33	=33	=33	=33	=33	=33
8c\	4g 4e/	.	4g/	-lo-	.
(<32C/LLL	.	.	.	.	.
32BBn/	.	.	.	.	.
32C/	.	.	.	.	.
32BB/JJJ	.	.	.	.	.
8C/)	8g 8e/	.	8g/	-wie	.
8r	8r	.	8r	.	.
=34	=34	=34	=34	=34	=34
8C\L	8gL 8e/	.	8g/	Ka-	.
8C\J	8gJ 8e/	.	8g/	-zdy	.
8.F\L	8.aL 8.f/	.	8.a/	w swo-	.
16A\Jk	16ccJk 16f/	.	16cc\	-iej	.
=35	=35	=35	=35	=35	=35
8c\	4g 4e/	.	4g/	mo-	.
(<32C/LLL	.	.	.	.	.
32BBn/	.	.	.	.	.
32C/	.	.	.	.	.
32BB/JJJ	.	.	.	.	.
8C/)	8.gL 8.e/	.	8.g/	-wie,	.
8r	.	.	.	.	.
!	!	!LO:HP:b	!	!	!
.	16gJk 16e/	<	16g/	Schy-	.
=36	=36	=36	=36	=36	=36
8F\L	4a 4f/	.	4a/	-la-	.
8D\	.	.	.	.	.
8G\	8.bnL 8.g 8.d/	.	8.bn\	-iąc	.
8F\J	.	.	.	.	.
!	!LO:TX:i:b:t=V&colon; S&colon;	!	!	!	!
.	16bJk 16g 16d/	[	16b\	swe	.
!!LO:PB:g=original
=37	=37	=37	=37	=37	=37
!	!	!LO:DY:b:rj	!	!	!
4E\	4cc 4g 4c/	f	4cc\	czo-	.
4F\	4a 4f 4c/	.	8a/	-ło	.
.	.	.	8a/	Spie-	.
=38	=38	=38	=38	=38	=38
8G\	8g 8e 8c/	.	(<8g/L	-wa-	.
8r	8r	.	8cc/J)	.	.
4GG\	4f 4Bn< 4G</	.	8.ee\	-ią	.
.	.	.	16dd\	we-	.
=39	=39	=39	=39	=39	=39
4.C\	4.e 4.c 4.G</	.	4cc\	-so-	.
.	.	.	8cc\	-ło.	.
!	!	!LO:DY:b:rj	!	!	!
8r	8aa\	pp	8r	.	.
=40	=40	=40	=40	=40	=40
*clefG2	*	*	*	*	*
8ee 8cc 8g\	8gg'>\L	.	2r	.	.
8r	8ccc'>\J	.	.	.	.
!LO:TX:t=P:problem=trzy łuki	!	!	!	!	!
!LO:S:s=2:note:problem=note-level slur	!	!	!	!	!
(>4gg (>4bn (<4g\	(>8.eee\L	.	.	.	.
.	16ddd\Jk)	.	.	.	.
=41	=41	=41	=41	=41	=41
8ee 8cc\))	8ccc\	.	4r;>	.	.
8r;>	8r;>	.	.	.	.
=42||	=42||	=42||	=42||	=42||	=42||
*M3/4	*M3/4	*	*M3/4	*	*
!	!	!LO:DY:b:rj	!LO:TX:a:i:t=Moderato	!	!
!	!LO:TX:t=P:problem=brak zakończenia ligatur	!	!	!	!
4r	[>4ff [<4f\	f	[<4f/	Na-	.
!LO:CL:ed	!	!	!	!	!
*clefF4	*	*	*	*	*
!!LO:LB:g=original
=43	=43	=43	=43	=43	=43
!LO:CL:ed	!	!	!	!	!
4F 4FF/	8.ffL] 8.f\]	.	8.f/]	.	.
!	!	!	!LO:SIC:l:v:s=-ro-	!	!
.	16ggJk 16g\	.	16g/	r-	.
4A 4F 4C\	4aa 4a\	.	4a/	-dził	.
4A 4F 4C\	4bb- 4b-\	.	4b-/	się	.
=44	=44	=44	=44	=44	=44
*rep	*	*	*	*	*
4F 4FF/	2ccc 2cc\	.	2cc\	Je-	.
4A 4F 4C\	.	.	.	.	.
4A 4F 4C\	4aa 4a\	.	4a/	-zus	.
*Xrep	*	*	*	*	*
=45	=45	=45	=45	=45	=45
4C 4CC/	8.bb-L 8.b-\	.	8.b-\	po-	.
.	16bb-Jk 16b-\	.	16b-\	-kłon	.
4B- 4G 4E 4C\	4bb- 4b-\	.	4b-\	mu	.
4B- 4G 4E 4C\	4ddd 4dd\	.	4dd\	od-	.
=46	=46	=46	=46	=46	=46
4F 4FF/	8cccL 8cc\	.	8cc\L	-daj-	.
.	8bb-J 8b-\	.	8b-\J	.	.
4A 4F 4C\	4aa 4a\	.	4a/	-my	.
4A 4F 4C\	4r	.	4r	.	.
=47	=47	=47	=47	=47	=47
*rep	*	*	*	*	*
4F 4FF/	8.ffL 8.f\	.	8.f/	Wiel-	.
.	16ggJk 16g\	.	16g/	-biąc	.
4A 4F 4C\	4aa 4a\	.	4a/	Pa-	.
4A 4F 4C\	4bb- 4b-\	.	4b-/	-na	.
*Xrep	*	*	*	*	*
=48	=48	=48	=48	=48	=48
*rep	*	*	*	*	*
4F 4FF/	2ccc 2cc\	.	2cc\	swe-	.
4A 4F 4C\	.	.	.	.	.
4A 4F 4C\	4aa 4a\	.	4a/	-go	.
*Xrep	*	*	*	*	*
!!LO:LB:g=original
=49	=49	=49	=49	=49	=49
4C 4CC/	8.bb-L 8.b-\	.	8.b-\	we-	.
.	16bb-Jk 16b-\	.	16b-\	-so-	.
4B- 4G 4E 4C\	4bb- 4b-\	.	4b-\	-ło	.
4B- 4G 4E 4C\	4ddd 4dd\	.	4dd\	śpie-	.
=50	=50	=50	=50	=50	=50
4F 4FF/	8cccL 8cc\	.	8cc\L	-waj-	.
.	8bb-J 8b-\	.	8b-\J	.	.
4A 4F 4C\	4aa 4a\	.	4a/	-my	.
4A 4F 4C\	4r	.	4r	.	.
=51!|:	=51!|:	=51!|:	=51!|:	=51!|:	=51!|:
*>B	*>B	*	*>B	*	*
!	!	!LO:DY:b:rj	!LO:TX:a:i:t=Ima piano 2da forte	!	!LO:DY:a
4E 4EE/	4r	p	4.b-/	Ciesz-	.
4r	4b- 4g 4c/	.	.	.	.
.	.	.	8b-/	-cie	.
4r	4b- 4g 4c/	.	4b-/	się	.
=52	=52	=52	=52	=52	=52
4F 4FF/	4r	.	8.a/	wszy-	.
.	.	.	16g/	-scy	.
4r	4a 4f 4c/	.	4a/	wko-	.
4r	4a 4f 4c/	.	4a/	-ło	.
=53	=53	=53	=53	=53	=53
2BB- 2BBB-\	4r	.	2g/	I	.
.	4g 4d 4G</	.	.	.	.
4BBn 4BBBn\	4f 4d 4G</	.	4f/	nuć-	.
!!LO:LB:g=original
=54	=54	=54	=54	=54	=54
4C 4CC/	4r	.	8.e/	-cie	.
.	.	.	16d/	we-	.
4rGG	4e 4c 4G</	.	4e/	-so-	.
4rGG	4e 4c 4G</	.	4c/	-ło	.
=55	=55	=55	=55	=55	=55
!	!	!LO:DY:b:rj	!	!	!
8.FL 8.FF\	8.ffL 8.f\	f	8.f/	Hej	.
16GJk 16GG\	16ggJk 16g\	.	16g/	Ko-	.
4A 4AA\	4aa 4a\	.	4a/	-len-	.
4B- 4BB-\	4bb- 4b-\	.	4b-/	-da	.
=56	=56	=56	=56	=56	=56
2c 2C\	2ccc 2cc\	.	2cc\	Ko-	.
8.GL 8.GG\	8.ggL 8.g\	.	8.g/L	-len-	.
16AJk 16AA\	16aaJk 16a\	.	16a/Jk	.	.
=57	=57	=57	=57	=57	=57
*>B1	*>B1	*	*>B1	*	*
!	!	!	!LO:TX:a:t=P:problem=w źródle partia głosu wokalnego bez oznaczeń wolt	!	!
!	!LO:TX:a:i:t=1ma	!	!LO:TX:a:t=P:problem=w źródle partia głosu wokalnego kończy się w tym takcie	!	!
8F 8FF/	8ff/ 8f/	.	4f/	-da.	.
8c\L	(>8cc\L	.	.	.	.
8d\	8dd\	.	4r	.	.
8c\	8cc\	.	.	.	.
8A\	8a\	.	4r	.	.
8F\J	8f\J)	.	.	.	.
=58:|!	=58:|!	=58:|!	=58:|!	=58:|!	=58:|!
*>B2	*>B2	*	*>B2	*	*
!	!LO:TX:a:i:t=2	!	!	!	!
4F 4FF/	4ff 4f\	.	2.ryy	.	.
4r	4r	.	.	.	.
!	!LO:N:n=1:vis=4.	!	!	!	!
4c 4C\	4ee 4cc 4b- 4g\	.	.	.	.
=59	=59	=59	=59	=59	=59
*>C	*>C	*	*>C	*	*
4F 4FF/	4ff 4cc 4a\	.	2.ryy	.	.
4r	4r	.	.	.	.
4r	4r	.	.	.	.
==	==	==	==	==	==
*-	*-	*-	*-	*-	*-
!!!system-decoration: s1{(s2,s3)}
!!!RDF**kern: | = vertical stroke
!!!RDF**kern: > = above
!!!RDF**kern: < = below
!!!EED: Antoni Szymański
!!!EEV: 2021-06-05
!!!ENC: Andrzej Kubiczek
!!!END: 2021-05-20
